images/headlights.svg

<!DOCTYPE svg PUBLIC "-//W3C//DTD SVG 1.1//EN" "http://www.w3.org/Graphics/SVG/1.1/DTD/svg11.dtd">
<!-- Uploaded to: SVG Repo, www.svgrepo.com, Transformed by: SVG Repo Mixer Tools -->
<svg fill="#d5282b" width="800px" height="800px" viewBox="0 0 256 256" id="Flat" xmlns="http://www.w3.org/2000/svg" stroke="#d5282b">
<g id="SVGRepo_bgCarrier" stroke-width="0"/>
<g id="SVGRepo_tracerCarrier" stroke-linecap="round" stroke-linejoin="round"/>
<g id="SVGRepo_iconCarrier"> <path d="M144,64V192a16.01833,16.01833,0,0,1-16,16H88A79.99987,79.99987,0,0,1,8.002,127.39453C8.32715,83.61621,44.61914,48,88.90381,48H128A16.01833,16.01833,0,0,1,144,64Zm96,104H168a8,8,0,0,0,0,16h72a8,8,0,0,0,0-16ZM168,88h72a8,8,0,0,0,0-16H168a8,8,0,0,0,0,16Zm72,16H168a8,8,0,0,0,0,16h72a8,8,0,0,0,0-16Zm0,32H168a8,8,0,0,0,0,16h72a8,8,0,0,0,0-16Z"/> </g>
</svg>

<svg fill="#d5282b" width="800" height="800" viewBox="0 0 256 256" xmlns="http://www.w3.org/2000/svg" stroke="#d5282b"><path d="M144 64v128a16.018 16.018 0 0 1-16 16H88a80 80 0 0 1-79.998-80.605C8.327 83.616 44.619 48 88.904 48H128a16.018 16.018 0 0 1 16 16Zm96 104h-72a8 8 0 0 0 0 16h72a8 8 0 0 0 0-16Zm-72-80h72a8 8 0 0 0 0-16h-72a8 8 0 0 0 0 16Zm72 16h-72a8 8 0 0 0 0 16h72a8 8 0 0 0 0-16Zm0 32h-72a8 8 0 0 0 0 16h72a8 8 0 0 0 0-16Z"/></svg>
